X:1
T:He Comes
T:He Comes
T:J. Raymond Neff
T:O. A. Pratt, 1907
T:Public Domain Courtesy of the Cyber Hymnal™
T:Public Domain Courtesy of the Cyber Hymnal™
C:J. Raymond Neff
Z:Public Domain
Z:Courtesy of the Cyber Hymnal™
%%score ( 1 2 ) 3
L:1/8
Q:1/4=105
M:4/4
K:G
V:1 treble 
V:2 treble 
V:3 bass 
V:1
 D2 | [GB]3 [GA] G2 [Gc]2 | [GB]3 G [GB]2 [Gd]2 | [Fd]3 [FA] [GB]2 [Ac]2 | [GB]3 [FA] [FA]2 D2 | %5
w: 1.~He|comes! He comes with|trum- pet sound, To|wake the slum- bering|na- tions round; His|
w: 2.~He|comes no more in|priest- ly dress; Each|eye shall see, each|tongue con- fess: To|
w: 3.~Dear|sin- ners, what will|be your fate? The|cry will be, “Too|late, too late! To|
w: 4.~His|loved, His own all|hear His voice, O-|bey His call, in|Him re- joice; The|
w: 5.~Be-|hold, what won- der|greets mine eye— Ten|thou- sand an- gels|in the sky! The|
 [DG]3 [DA] [GB]2 [=Fd]2 | [=Fd]3 [Ec] [Ec]2 [Ec]2 | [DB]4 [DA]4 | [DG]6 [GB]2 | %9
w: par- doning love no|more is found— He|comes! He|comes! The|
w: judge the world in|right- eous- ness He|comes! He|comes! The|
w: en- ter in at|Hea- ven’s gate!” He|comes! He|comes! “Let|
w: way of life has|been their choice; He|comes! He|comes! Now|
w: end has come, des-|truc- tion’s nigh, He|comes! He|comes! Oh,|
 [Gd]3 [Ge] [Gd]2 [GB]2 | [Gd]3 [Fc] [Fc]2 [Fc]2 | [GB]3 [GB] [GB]2 G2 | [GB]3 [FA] [FA]2 D2 | %13
w: dead in Christ shall|then a- rise To|meet their Sav- ior|in the skies, No|
w: earth shall melt, the|moun- tains quake, The|sea shall roar, the|hea- vens shake, The|
w: rocks and moun- tains|on us fall,” In|vain at mer- cy’s|door they call: Now|
w: to those man- sions|fair and bright They|take their ev- er-|last- ing flight; There|
w: fear- ful scene! Cre-|a- tion groans, While|loud a- bove the|trum- pet tones What|
 [DG]3 [DA] [GB]2 [=Fd]2 | [=Fd]3 [Ec] [Ec]2 [Ec]2 | [DB]4 [DA]4 | [DG]6 |] %17
w: more a bleed- ing|sac- ri- fice— He|comes! He|comes!|
w: trum- pet sounds, the|dead a- wake— He|comes! He|comes!|
w: doomed to swift de-|struc- tion all— He|comes! He|comes!|
w: they shall walk with|Him in white— He|comes! He|comes!|
w: peals of joy! What|pierc- ing moans! He|comes! He|comes!|
V:2
 D2 | x4 G2 x2 | x3 G x4 | x8 | x6 D2 | x8 | x8 | x8 | x8 | x8 | x8 | x6 G2 | x6 D2 | x8 | x8 | %15
 x8 | x6 |] %17
V:3
 [G,B,]2 | [G,D]3 [G,C] [G,B,]2 [G,E]2 | [G,D]3 [G,B,] [G,D]2 [G,B,]2 | %3
 [D,A,]3 [D,D] [G,D]2 [F,D]2 | [G,D]3 [D,D] [D,D]2 [F,C]2 | [G,B,]3 [G,D] [G,D]2 [B,,G,]2 | %6
 [B,,G,]3 [C,G,] [C,G,]2 [C,G,]2 | [D,G,]4 [D,C]4 | [G,,B,]6 [G,D]2 | %9
 [G,B,]3 [G,C] [G,B,]2 [G,D]2 | [B,D]3 [A,D] [A,D]2 [D,D]2 | [G,D]3 [G,D] [G,D]2 [E,^C]2 | %12
 [D,D]3 [D,D] [D,D]2 [F,C]2 | [G,B,]3 [G,C] [G,D]2 [B,,G,]2 | [B,,G,]3 [C,G,] [C,G,]2 [C,G,]2 | %15
 [D,G,]4 [D,C]4 | [G,,B,]6 |] %17

